X:220
T: Basket of Turf
T: Cliabh M\'ona
S: B.Breathnach: "Ceol Rince na hEireann" II/52
Z: B.Black
L: 1/8
M: 6/8
R: jig
K: Edor
EBB BAB|FEF AFD|EBB BAB|AFD E3|
EBB BAB|FEF AFD|EBB EBB|AFD E3 :|
Bee ede|feB dBA|Bee ede|edB d3|
Bee ede|fde dBA|FGA BGB|AFD E3 :|

